X:45
%%topspace -50
T:Shove That Pig's Foot a Little Further in the Fire
M:4/4
L:1/8
R:reel
K:G
GA| "G"BdBA G2 E2| "C"GAGE "G"D4| DEG2 B3c| "D"B2 A4 GA|
"G"BdBA G2E2| "C"GAGE "G"D4| "G"DEG2 "D"B3G| "G"A2 G4 :|
|: GA| "G"Bd3 dBdg| "C"edBd "G"d4| "C"g4 g3d| "D"e2 d4 dd|
"G"Bd3 dBdg| "C"edBd "G"d4| "G"BABd "D"BAGB| "G"A2 G4 :|

